icons/circle/48/libreoffice-writer.svg

<svg xmlns="http://www.w3.org/2000/svg" xmlns:xlink="http://www.w3.org/1999/xlink" viewBox="0 0 48 48">
 <defs>
  <linearGradient id="linearGradient3764" x1="1" x2="47" gradientUnits="userSpaceOnUse" gradientTransform="matrix(0,-1,1,0,-1.5e-6,47.999998)">
   <stop style="stop-color:#3aa0b2;stop-opacity:1"/>
   <stop offset="1" style="stop-color:#40acc1;stop-opacity:1"/>
  </linearGradient>
 </defs>
 <g>
  <path d="m 36.31 5 c 5.859 4.062 9.688 10.831 9.688 18.5 c 0 12.426 -10.07 22.5 -22.5 22.5 c -7.669 0 -14.438 -3.828 -18.5 -9.688 c 1.037 1.822 2.306 3.499 3.781 4.969 c 4.085 3.712 9.514 5.969 15.469 5.969 c 12.703 0 23 -10.298 23 -23 c 0 -5.954 -2.256 -11.384 -5.969 -15.469 c -1.469 -1.475 -3.147 -2.744 -4.969 -3.781 z m 4.969 3.781 c 3.854 4.113 6.219 9.637 6.219 15.719 c 0 12.703 -10.297 23 -23 23 c -6.081 0 -11.606 -2.364 -15.719 -6.219 c 4.16 4.144 9.883 6.719 16.219 6.719 c 12.703 0 23 -10.298 23 -23 c 0 -6.335 -2.575 -12.06 -6.719 -16.219 z" style="opacity:0.05"/>
  <path d="m 41.28 8.781 c 3.712 4.085 5.969 9.514 5.969 15.469 c 0 12.703 -10.297 23 -23 23 c -5.954 0 -11.384 -2.256 -15.469 -5.969 c 4.113 3.854 9.637 6.219 15.719 6.219 c 12.703 0 23 -10.298 23 -23 c 0 -6.081 -2.364 -11.606 -6.219 -15.719 z" style="opacity:0.1"/>
  <path d="m 31.25 2.375 c 8.615 3.154 14.75 11.417 14.75 21.13 c 0 12.426 -10.07 22.5 -22.5 22.5 c -9.708 0 -17.971 -6.135 -21.12 -14.75 a 23 23 0 0 0 44.875 -7 a 23 23 0 0 0 -16 -21.875 z" style="opacity:0.2"/>
 </g>
 <g>
  <path d="m 24 1 c 12.703 0 23 10.297 23 23 c 0 12.703 -10.297 23 -23 23 -12.703 0 -23 -10.297 -23 -23 0 -12.703 10.297 -23 23 -23 z" style="fill:url(#linearGradient3764);fill-opacity:1"/>
 </g>
 <g>
  <g>
   <g transform="translate(1,1)">
    <g style="opacity:0.1">
     <!-- color: #40acc1 -->
     <g>
      <path d="m 14.781 11 c -0.98 0 -1.781 0.801 -1.781 1.781 l 0 22.438 c 0 0.98 0.801 1.781 1.781 1.781 l 20.438 0 c 0.984 0 1.785 -0.801 1.785 -1.781 l 0 -18.223 l -6 -5.996 m -16.223 0" style="fill:#000;fill-opacity:1;stroke:none;fill-rule:nonzero"/>
      <use xlink:href="#SVGCleanerId_0"/>
     </g>
    </g>
   </g>
  </g>
 </g>
 <g>
  <g>
   <!-- color: #40acc1 -->
   <g>
    <path d="M 14.781,11 C 13.801,11 13,11.801 13,12.781 l 0,22.438 C 13,36.199 13.801,37 14.781,37 l 20.438,0 c 0.984,0 1.785,-0.801 1.785,-1.781 l 0,-18.223 -6,-5.996 m -16.223,0" style="fill:#ecf2f2;fill-opacity:1;stroke:none;fill-rule:nonzero"/>
    <path d="m 37 17 -6 0 6 6 m 0 -6" id="SVGCleanerId_0" style="fill:#000;fill-opacity:0.2;stroke:none;fill-rule:nonzero"/>
    <path d="m 16.355,14 15.293,0 c 0.195,0 0.355,0.16 0.355,0.355 l 0,1.289 c 0,0.195 -0.16,0.352 -0.355,0.352 l -15.293,0 C 16.16,15.996 16,15.84 16,15.644 l 0,-1.289 C 16,14.16 16.16,14 16.355,14 m 0,0" style="fill:#5ba3ec;fill-opacity:1;stroke:none;fill-rule:nonzero"/>
    <path d="m 37,17 -6,0 0,-5.996 M 37,17" style="fill:#fff;fill-opacity:1;stroke:none;fill-rule:nonzero"/>
    <path d="m 16.355,20 15.293,0 c 0.195,0 0.355,0.156 0.355,0.352 l 0,1.289 c 0,0.199 -0.16,0.355 -0.355,0.355 l -15.293,0 C 16.16,21.996 16,21.84 16,21.641 l 0,-1.289 C 16,20.157 16.16,20 16.355,20 m 0,0" style="fill:#5ba3ec;fill-opacity:1;stroke:none;fill-rule:nonzero"/>
    <path d="m 16.355,26 15.293,0 c 0.195,0 0.355,0.16 0.355,0.355 l 0,1.289 c 0,0.195 -0.16,0.355 -0.355,0.355 l -15.293,0 C 16.16,27.999 16,27.839 16,27.644 l 0,-1.289 C 16,26.16 16.16,26 16.355,26 m 0,0" style="fill:#5ba3ec;fill-opacity:1;stroke:none;fill-rule:nonzero"/>
    <path d="m 16.355,31.996 15.293,0 c 0.195,0 0.355,0.16 0.355,0.355 l 0,1.289 c 0,0.195 -0.16,0.355 -0.355,0.355 l -15.293,0 C 16.16,33.995 16,33.835 16,33.64 l 0,-1.289 c 0,-0.195 0.16,-0.355 0.355,-0.355 m 0,0" style="fill:#5ba3ec;fill-opacity:1;stroke:none;fill-rule:nonzero"/>
   </g>
  </g>
 </g>
 <g>
  <path d="m 40.03 7.531 c 3.712 4.084 5.969 9.514 5.969 15.469 0 12.703 -10.297 23 -23 23 c -5.954 0 -11.384 -2.256 -15.469 -5.969 4.178 4.291 10.01 6.969 16.469 6.969 c 12.703 0 23 -10.298 23 -23 0 -6.462 -2.677 -12.291 -6.969 -16.469 z" style="opacity:0.1"/>
 </g>
</svg>

<svg xmlns="http://www.w3.org/2000/svg" xmlns:xlink="http://www.w3.org/1999/xlink" viewBox="0 0 48 48">
  <defs>
    <linearGradient id="a" x1="1" x2="47" gradientUnits="userSpaceOnUse" gradientTransform="rotate(-90 24 24)">
      <stop stop-color="#3aa0b2"/>
      <stop offset="1" stop-color="#40acc1"/>
    </linearGradient>
  </defs>
  <path d="M36.31 5c5.859 4.062 9.688 10.831 9.688 18.5 0 12.426-10.07 22.5-22.5 22.5-7.669 0-14.438-3.828-18.5-9.688a23.24 23.24 0 0 0 3.781 4.969 22.923 22.923 0 0 0 15.469 5.969c12.703 0 23-10.298 23-23a22.92 22.92 0 0 0-5.969-15.469A23.216 23.216 0 0 0 36.31 5zm4.969 3.781A22.911 22.911 0 0 1 47.498 24.5c0 12.703-10.297 23-23 23a22.909 22.909 0 0 1-15.719-6.219C12.939 45.425 18.662 48 24.998 48c12.703 0 23-10.298 23-23 0-6.335-2.575-12.06-6.719-16.219z" opacity=".05"/>
  <path d="M41.28 8.781a22.923 22.923 0 0 1 5.969 15.469c0 12.703-10.297 23-23 23A22.92 22.92 0 0 1 8.78 41.281 22.911 22.911 0 0 0 24.499 47.5c12.703 0 23-10.298 23-23A22.909 22.909 0 0 0 41.28 8.781z" opacity=".1"/>
  <path d="M31.25 2.375C39.865 5.529 46 13.792 46 23.505c0 12.426-10.07 22.5-22.5 22.5-9.708 0-17.971-6.135-21.12-14.75a23 23 0 0 0 44.875-7 23 23 0 0 0-16-21.875z" opacity=".2"/>
  <path d="M24 1c12.703 0 23 10.297 23 23S36.703 47 24 47 1 36.703 1 24 11.297 1 24 1z" fill="url(#a)"/>
  <g transform="translate(1 1)" opacity=".1">
    <path d="M14.781 11c-.98 0-1.781.801-1.781 1.781v22.438c0 .98.801 1.781 1.781 1.781h20.438c.984 0 1.785-.801 1.785-1.781V16.996l-6-5.996m-16.223 0"/>
    <use xlink:href="#b"/>
  </g>
  <g>
    <path d="M14.781 11c-.98 0-1.781.801-1.781 1.781v22.438c0 .98.801 1.781 1.781 1.781h20.438c.984 0 1.785-.801 1.785-1.781V16.996l-6-5.996m-16.223 0" fill="#ecf2f2"/>
    <path d="M37 17h-6l6 6m0-6" id="b" fill-opacity=".2"/>
    <path d="M16.355 14h15.293c.195 0 .355.16.355.355v1.289c0 .195-.16.352-.355.352H16.355a.353.353 0 0 1-.355-.352v-1.289c0-.195.16-.355.355-.355m0 0" fill="#5ba3ec"/>
    <path d="M37 17h-6v-5.996M37 17" fill="#fff"/>
    <path d="M16.355 20h15.293c.195 0 .355.156.355.352v1.289c0 .199-.16.355-.355.355H16.355a.354.354 0 0 1-.355-.355v-1.289c0-.195.16-.352.355-.352m0 0M16.355 26h15.293c.195 0 .355.16.355.355v1.289c0 .195-.16.355-.355.355H16.355a.356.356 0 0 1-.355-.355v-1.289c0-.195.16-.355.355-.355m0 0M16.355 31.996h15.293c.195 0 .355.16.355.355v1.289c0 .195-.16.355-.355.355H16.355A.356.356 0 0 1 16 33.64v-1.289c0-.195.16-.355.355-.355m0 0" fill="#5ba3ec"/>
  </g>
  <g>
    <path d="M40.03 7.531A22.922 22.922 0 0 1 45.999 23c0 12.703-10.297 23-23 23A22.92 22.92 0 0 1 7.53 40.031C11.708 44.322 17.54 47 23.999 47c12.703 0 23-10.298 23-23 0-6.462-2.677-12.291-6.969-16.469z" opacity=".1"/>
  </g>
</svg>
